packages/ui-icons/svg/Line/text-direction-ltr.svg

<svg viewBox="0 0 1920 1920" version="1.1" xmlns="http://www.w3.org/2000/svg">
    <path d="M1384.15184,1232.85621 L1654.44497,1503.07551 L288.974957,1503.07551 L288.974957,1588.96848 L1654.44497,1588.96848 L1384.15184,1859.27367 L1444.89477,1920 L1818.97496,1546.10789 L1444.89477,1172.21577 L1384.15184,1232.85621 Z M650.966702,85.8929738 L813.864276,85.8929738 L813.864276,629.509605 L650.966702,629.509605 C501.04251,629.509605 379.041163,507.627475 379.041163,357.744236 C379.041163,207.775104 501.04251,85.8929738 650.966702,85.8929738 M650.966702,715.402579 L813.864276,715.402579 L813.864276,1256.18474 L899.780718,1256.18474 L899.780718,85.8929738 L1125.65504,85.8929738 L1125.65504,1256.18474 L1211.57149,1256.18474 L1211.57149,85.8929738 L1377.47614,85.8929738 L1377.47614,0 L650.966702,0 C453.702551,0 293.124721,160.448075 293.124721,357.744236 C293.124721,554.954504 453.702551,715.402579 650.966702,715.402579" stroke="none" stroke-width="1" fill-rule="evenodd"/>
</svg>

<svg viewBox="0 0 1920 1920" xmlns="http://www.w3.org/2000/svg">
    <path d="m1384.152 1232.856 270.293 270.22H288.975v85.892h1365.47l-270.293 270.306 60.743 60.726 374.08-373.892-374.08-373.892-60.743 60.64ZM650.967 85.893h162.897V629.51H650.967c-149.924 0-271.926-121.883-271.926-271.766 0-149.969 122.002-271.851 271.926-271.851m0 629.51h162.897v540.782h85.917V85.893h225.874v1170.292h85.916V85.893h165.905V0h-726.51c-197.262 0-357.84 160.448-357.84 357.744 0 197.21 160.578 357.659 357.842 357.659" fill-rule="evenodd"/>
</svg>
